X:135
T:Dooley
C:by the Dillards
N:Transcribed by Richard Schwartz
R:bluegrass
L:1/8
Q:1/4=240
M:4/4
K:G
z8 | "G"D2 D2 D2 D2 | "C"E2 G4 E2 | "G"D2 G2 F2 G2 | "D"A8 | "G"B2 B2 B2 B2 | 
"C"A2 G2 G2 A2 | "G"B2 B2 "D"A2 A2 | "G"G8 | "G"d2 d2 d2 d2 | e2 g4 e2 | "G"d2 g2 f2 g2 | 
"D"a8 | "G"b2 b2 b2 b2 | "C"a2 g2 g2 a2 | "G"b2 b2 "D"a2 a2 | "G"g8 | d4 g4 | 
bb bb a2 g2 | e4 g4 | bb bb a2 g2 | d4 g4 | bb bb ag ga | b2 b2 a2 a2 | g6 Bc | 
"G"d2 [g2d2] [gd][gd] [gd][gd] | "C"eg gg gg ga | "G"b2 g2 dc B2 | "D"d2 fg ag f2 | 
"G"g2 ga bb bb | "C"gg gg ee ee | "G"d2 fg "D"ag f2 | "G"g2 gg g2 [bd][bd] | "G"[b2d2] [b2d2] [gd][gd] [gd][gd] | 
[ge][ge] [ge][ge] [gd][gd] [gc][gc] | "G"g2 g2 dc B2 | "D"d2 fg ag f2 | "G"g2 g2 dc BB | 
"C"ce ee ee ee | "G"d2 d2 "D"AG FF | "G"G2 Bd ce eg | g2 (3[gBG][gBG][gBG] [g2B2G2] [g2B2G2] | 
z2 [g4B4G4] [g2B2G2] | 


